X:5
T:Banshee, The
C:Traditional
R:reel
K:G
M:4/4
L:1/8
|: G2 GD EDEG| AGAB d2 Bd| eged BAGA| BAGE EDDE|
! G2 GD EDEG| AGAB d2 Bd| eged BAGA| BAGE ED D2:| ! |:
ea a2 efgf| eBBA B2 Bd| eB B2 efgf| eBBA B2 Bd|
! ea a2 efgf| eBBA B2 Bd| eged BAGA| BAGE EDD2:|
%%footer JamBuddy 2025 - No rights reserved, public domain

